build/img/svg/ship.svg

<svg width="44" height="32" viewBox="0 0 44 32" fill="none" xmlns="http://www.w3.org/2000/svg">
<path d="M41.4386 25.7195L1.64777 17.2126C1.34201 17.1472 1.13593 17.7761 1.29431 18.277C3.83755 26.326 9.85818 32 16.8667 32H40.6041C40.7654 32 40.9069 31.8011 40.9546 31.5089L41.7481 26.6154C41.8155 26.1995 41.6667 25.7682 41.4386 25.7195Z" fill="#011C40"/>
<path d="M43.8843 11.771C43.7677 11.426 43.5778 11.1964 43.3644 11.1421L32.3643 8.35935C31.9676 8.26054 31.5943 8.79339 31.5401 9.55451C31.4859 10.3156 31.7689 11.0169 32.17 11.1183L33.4153 11.4329C33.5971 11.4788 33.7335 11.7738 33.7335 12.1216V14.2727C33.7335 14.6859 33.5443 15.0087 33.328 14.9642L30.3947 14.3673C30.2084 14.3311 30.0669 14.0319 30.0669 13.6771V7.58714C30.0669 7.44936 30.0881 7.31582 30.1285 7.20168L31.4103 3.55359C31.557 3.13618 31.5739 2.60186 31.4551 2.15527C31.3356 1.70721 31.0987 1.41502 30.8347 1.39138L15.4347 6.54269e-05C15.1875 -0.00417389 14.9478 0.197683 14.8033 0.581667C14.8033 0.581667 11.8729 8.39554 11.2305 10.1152C11.1535 10.3212 11.0244 10.4311 10.8924 10.4032L0.811081 8.35527C0.602854 8.31353 0.397462 8.44022 0.242774 8.70306C0.0887737 8.96752 0 9.34319 0 9.73826C0 11.0782 0.0916956 12.3916 0.264774 13.6662C0.302931 13.9473 0.432009 14.1517 0.583775 14.1851L42.015 23.0425C42.1902 23.08 42.3545 22.8756 42.4066 22.5555L43.9679 12.93C44.0309 12.5391 44.0002 12.1147 43.8843 11.771ZM21.1626 4.06427L20.5906 11.6639C20.5628 12.0326 20.3904 12.2956 20.1946 12.258C18.7639 11.984 13.3885 10.9113 13.3885 10.9113C13.1098 10.8542 12.9661 10.2489 13.1289 9.8149L15.6479 3.12379C15.7205 2.93172 15.8393 2.82182 15.964 2.83307L20.8172 3.27135C21.0328 3.29075 21.1934 3.65794 21.1626 4.06427ZM29.1127 5.0786L28.6617 6.35871C28.6214 6.47285 28.6001 6.60769 28.6001 6.74547V13.2306C28.6001 13.6438 28.4109 13.9667 28.1946 13.9221L22.3748 12.7395C22.1687 12.6978 22.0213 12.3388 22.0506 11.9492L22.6438 4.06997C22.6702 3.71517 22.8352 3.45641 23.0245 3.47304L28.8252 3.99758C29.1098 4.02252 29.2711 4.62777 29.1127 5.0786ZM38.1334 15.1674C38.1334 15.5805 37.9442 15.9034 37.7279 15.8589C37.7279 15.8589 36.2055 15.5332 35.5235 15.3803C35.3387 15.34 35.2001 15.0421 35.2001 14.6901V12.6782C35.2001 12.2581 35.3952 11.9324 35.6152 11.988L37.8152 12.5445C37.9971 12.5918 38.1334 12.8868 38.1334 13.2347V15.1674ZM42.1837 14.4689L41.9116 16.144C41.8603 16.4613 41.6968 16.6658 41.5222 16.6311L39.9272 16.3069C39.7417 16.2694 39.6001 15.9702 39.6001 15.6154V13.7927C39.6001 13.3725 39.7952 13.0469 40.0152 13.1025L41.8815 13.5742C42.1059 13.6313 42.2504 14.0571 42.1837 14.4689Z" fill="#011C40"/>
</svg>

<svg width="44" height="32" viewBox="0 0 44 32" fill="none" xmlns="http://www.w3.org/2000/svg"><path d="m41.44 25.72-39.8-8.5c-.3-.07-.5.56-.35 1.06C3.84 26.33 9.86 32 16.87 32H40.6c.17 0 .3-.2.35-.5l.8-4.88c.07-.42-.08-.85-.31-.9ZM43.88 11.77c-.11-.34-.3-.57-.52-.63l-11-2.78c-.4-.1-.77.43-.82 1.2-.05.76.23 1.46.63 1.56l1.25.31c.18.05.31.34.31.7v2.14c0 .42-.19.74-.4.7l-2.94-.6c-.18-.04-.32-.34-.32-.7V7.6c0-.14.02-.27.06-.39l1.28-3.65c.15-.41.16-.95.05-1.4-.12-.44-.36-.73-.63-.76L15.43 0c-.24 0-.48.2-.63.58l-3.57 9.54c-.08.2-.2.31-.34.28L.81 8.36c-.2-.05-.41.08-.57.34C.1 8.97 0 9.34 0 9.74c0 1.34.1 2.65.26 3.93.04.28.17.48.32.52l41.43 8.85c.18.04.34-.16.4-.48l1.56-9.63c.06-.4.03-.82-.09-1.16Zm-22.72-7.7-.57 7.6c-.03.36-.2.63-.4.59l-6.8-1.35c-.28-.06-.42-.66-.26-1.1l2.52-6.69c.07-.19.19-.3.31-.29l4.86.44c.21.02.37.39.34.8Zm7.95 1-.45 1.29c-.04.11-.06.25-.06.39v6.48c0 .41-.19.74-.4.7l-5.83-1.2c-.2-.03-.35-.4-.32-.78l.6-7.88c.02-.35.19-.61.37-.6l5.8.53c.29.02.45.63.3 1.08Zm9.02 10.1c0 .41-.19.73-.4.69l-2.2-.48c-.2-.04-.33-.34-.33-.69v-2.01c0-.42.2-.75.42-.7l2.2.56c.18.05.31.35.31.7v1.93Zm4.05-.7-.27 1.67c-.05.32-.21.53-.39.5l-1.6-.33c-.18-.04-.32-.34-.32-.7V13.8c0-.42.2-.74.42-.69l1.86.47c.23.06.37.49.3.9Z" fill="#011C40"/></svg>
